symbolic/64x64/apps/codeblocks.svg

<svg xmlns="http://www.w3.org/2000/svg" width="64" height="64" version="1"><path style="opacity:.2" d="M4 56v2c0 1.662 1.338 3 3 3h50c1.662 0 3-1.338 3-3v-2c0 1.662-1.338 3-3 3H7c-1.662 0-3-1.338-3-3z"/><path style="fill:#e44545" d="M16 2H3.5C2.669 2 2 2.669 2 3.5V16h14z" transform="scale(2)"/><path style="fill:#38ac52" d="M16 2h12.5c.831 0 1.5.669 1.5 1.5V16H16z" transform="scale(2)"/><path style="fill:#f2ae37" d="M16 30H3.5c-.831 0-1.5-.669-1.5-1.5V16h14z" transform="scale(2)"/><path style="fill:#3776f2" d="M16 30h12.5c.831 0 1.5-.669 1.5-1.5V16H16z" transform="scale(2)"/><path style="opacity:.1;fill:#fff" d="M7 4C5.338 4 4 5.338 4 7v1c0-1.662 1.338-3 3-3h50c1.662 0 3 1.338 3 3V7c0-1.662-1.338-3-3-3z"/></svg>

<svg xmlns="http://www.w3.org/2000/svg" width="64" height="64" version="1">
 <path style="opacity:0.2" d="m 4,56 v 2 c 0,1.662 1.338,3 3,3 h 50 c 1.662,0 3,-1.338 3,-3 v -2 c 0,1.662 -1.338,3 -3,3 H 7 C 5.338,59 4,57.662 4,56 Z"/>
 <g transform="scale(2)">
  <path style="fill:#e44545" d="M 16,2 H 3.5 C 2.669,2 2,2.669 2,3.5 V 16 h 14 z"/>
  <path style="fill:#38ac52" d="M 16,2 H 28.5 C 29.331,2 30,2.669 30,3.5 V 16 H 16 Z"/>
  <path style="fill:#f2ae37" d="M 16,30 H 3.5 C 2.669,30 2,29.331 2,28.5 V 16 h 14 z"/>
  <path style="fill:#3776f2" d="M 16,30 H 28.5 C 29.331,30 30,29.331 30,28.5 V 16 H 16 Z"/>
 </g>
 <path style="opacity:0.1;fill:#ffffff" d="M 7,4 C 5.338,4 4,5.338 4,7 V 8 C 4,6.338 5.338,5 7,5 h 50 c 1.662,0 3,1.338 3,3 V 7 C 60,5.338 58.662,4 57,4 Z"/>
</svg>
